lib/brands/icons/google-news.svg

<svg xmlns="http://www.w3.org/2000/svg" fill="none" aria-hidden="true" viewBox="0 0 48 48"><g id="google-news-Icon"><g id="Group"><path id="Vector" fill="#0C9D58" d="M34.6327 29.251C34.6293 29.7557 34.2192 30.163 33.7146 30.163H14.2894C13.7831 30.1652 13.3705 29.7573 13.3672 29.251V10.1898C13.3705 9.68503 13.7806 9.2777 14.2853 9.2777H33.7105C34.2168 9.2755 34.6293 9.68347 34.6327 10.1898V29.251Z"/><path id="Vector_2" fill="#004D40" d="M34.6327 14.177L27.3512 13.2405L34.6327 15.1953V14.177ZM24.3516 10.2715L13.3242 15.1953L25.511 10.7602V10.7479C25.3211 10.2976 24.8033 10.0848 24.3516 10.2715Z" opacity="0.2"/><path id="Vector_3" fill="white" d="M33.7146 9.27777H14.2894C13.7831 9.2755 13.3705 9.68347 13.3672 10.1898V10.3942C13.3705 9.88955 13.7806 9.48222 14.2853 9.48222H33.7105C34.2168 9.47995 34.6293 9.88792 34.6327 10.3942V10.1898C34.6293 9.68503 34.2192 9.2777 33.7146 9.2777V9.27777Z" opacity="0.2"/><path id="Vector_4" fill="#EA4335" d="M18.0817 28.6662C17.9376 29.1335 18.198 29.6295 18.6644 29.7765L36.6583 34.6164C37.1357 34.7219 37.6087 34.4224 37.7175 33.9457L41.9563 18.1234C42.1008 17.6578 41.8437 17.1626 41.3796 17.0131L23.3858 12.1732C22.9084 12.0677 22.4353 12.3672 22.3266 12.8439L18.0817 28.6662Z"/><path id="Vector_5" fill="#3E2723" d="M37.9037 23.771L38.8504 29.5209L37.9037 33.0542V23.771ZM27.4346 13.4756L28.2831 13.7047L28.8106 17.2524L27.4346 13.4756Z" opacity="0.2"/><path id="Vector_6" fill="white" d="M41.3796 17.0131L23.3858 12.1732C22.9084 12.0677 22.4353 12.3672 22.3266 12.8439L18.0817 28.6662C18.0817 28.6927 18.0817 28.7193 18.0674 28.7459L22.2755 13.0421C22.3842 12.5655 22.8572 12.2659 23.3347 12.3715L41.3285 17.2114C41.5368 17.2777 41.7131 17.419 41.823 17.6079C41.933 17.7969 41.9688 18.0199 41.9235 18.2338L41.9562 18.1132C42.0943 17.6508 41.8384 17.1627 41.3797 17.0131H41.3796Z" opacity="0.2"/><path id="Vector_7" fill="#FFC107" d="M32.2543 26.7175C32.439 27.1703 32.2235 27.6873 31.7718 27.8748L12.7821 34.7861C12.3159 34.9335 11.8181 34.6769 11.6677 34.2116L6.06509 18.8166C5.88197 18.3637 6.09836 17.848 6.54969 17.6612L25.5393 10.7501C26.0062 10.5999 26.5066 10.856 26.6578 11.3226L32.2543 26.7176V26.7175Z"/><path id="Vector_8" fill="white" d="M6.13655 19.0108C5.95329 18.5586 6.16854 18.0431 6.61916 17.8555L25.6088 10.9443C26.0685 10.7997 26.5596 11.0483 26.7151 11.5044L26.6578 11.3225C26.5074 10.8573 26.0097 10.6006 25.5434 10.7479L6.54957 17.6612C6.09795 17.8488 5.88242 18.3657 6.06703 18.8185L11.6697 34.2116V34.2259L6.13655 19.0108Z" opacity="0.2"/><path id="Vector_9" fill="#4285F4" d="M36.9843 17.2523H11.0159C10.5077 17.2523 10.0957 17.6643 10.0957 18.1725V37.8021C10.0957 38.3103 10.5077 38.7223 11.0159 38.7223H36.9843C37.4925 38.7223 37.9044 38.3103 37.9044 37.8021V18.1725C37.9044 17.6643 37.4925 17.2523 36.9843 17.2523Z"/><path id="Vector_10" fill="white" d="M25.1759 22.9777H32.9459C33.0544 22.9777 33.1584 23.0207 33.2351 23.0974C33.3118 23.1741 33.3549 23.2782 33.3549 23.3866V24.6134C33.3549 24.7219 33.3118 24.8259 33.2351 24.9026C33.1584 24.9793 33.0544 25.0224 32.9459 25.0224H25.1758V22.9777H25.1759ZM25.1759 30.7477H32.9459C33.0544 30.7477 33.1584 30.7908 33.2351 30.8675C33.3118 30.9442 33.3549 31.0482 33.3549 31.1567V32.3836C33.3549 32.492 33.3118 32.596 33.2351 32.6727C33.1584 32.7494 33.0544 32.7925 32.9459 32.7925H25.1758V30.7477H25.1759ZM25.1759 26.8627H34.1727C34.2811 26.8627 34.3851 26.9058 34.4618 26.9825C34.5385 27.0592 34.5816 27.1632 34.5816 27.2716V28.4985C34.5816 28.607 34.5385 28.711 34.4619 28.7877C34.3852 28.8644 34.2811 28.9075 34.1727 28.9075H25.1759V26.8627Z"/><path id="Vector_11" fill="#1A237E" d="M36.9844 38.5179H11.0159C10.5082 38.5167 10.0968 38.1054 10.0957 37.5977V37.8021C10.0968 38.3099 10.5082 38.7212 11.0159 38.7223H36.9844C37.4921 38.7212 37.9034 38.3099 37.9045 37.8021V37.5977C37.9034 38.1054 37.4921 38.5167 36.9844 38.5179Z" opacity="0.2"/><path id="Vector_12" fill="white" d="M11.0159 17.4568H36.9844C37.4921 17.4579 37.9034 17.8692 37.9045 18.377V18.1724C37.9034 17.6647 37.4921 17.2534 36.9844 17.2523H11.0159C10.5082 17.2534 10.0968 17.6647 10.0957 18.1724V18.377C10.0968 17.8692 10.5082 17.4579 11.0159 17.4568Z" opacity="0.2"/><path id="Vector_13" fill="white" d="M18.223 27.0672V28.9075H20.8689C20.6501 30.0321 19.6625 30.8459 18.223 30.8459C16.5855 30.8459 15.2581 29.5185 15.2581 27.881C15.2581 26.2436 16.5855 24.9161 18.223 24.9161C18.9266 24.9027 19.6067 25.1689 20.1143 25.6563L21.5151 24.2557C20.6254 23.4182 19.4447 22.9598 18.223 22.9777C17.577 22.9752 16.9368 23.1003 16.3393 23.3458C15.7417 23.5914 15.1985 23.9524 14.7408 24.4084C14.2832 24.8643 13.92 25.4061 13.6722 26.0028C13.4244 26.5994 13.2969 27.239 13.2969 27.8851C13.2969 28.5311 13.4244 29.1708 13.6722 29.7674C13.92 30.364 14.2832 30.9058 14.7408 31.3618C15.1985 31.8177 15.7417 32.1788 16.3393 32.4243C16.9368 32.6698 17.577 32.7949 18.223 32.7925C21.057 32.7925 22.9259 30.8009 22.9259 27.9976C22.9249 27.6859 22.8989 27.3747 22.8482 27.0672H18.223Z"/><path id="Vector_14" fill="#1A237E" d="M18.2744 28.9075V29.1119H20.8713C20.8904 29.0451 20.9068 28.977 20.9204 28.9075H18.2745H18.2744Z" opacity="0.2"/><path id="Vector_15" fill="#1A237E" d="M18.2746 32.7925C15.6038 32.7931 13.4228 30.6576 13.3672 27.9873V28.0895C13.3672 30.7998 15.5643 32.997 18.2746 32.997C21.1087 32.997 22.9776 31.0054 22.9776 28.202V28.1366C22.91 30.8664 21.0616 32.7925 18.2746 32.7925H18.2746ZM20.1578 25.6563C19.6516 25.1724 18.9748 24.9079 18.2746 24.9202C16.6569 24.9459 15.3603 26.2672 15.3649 27.8851V27.9873C15.4128 26.4107 16.6914 25.1502 18.2684 25.1246C18.9687 25.1123 19.6454 25.3769 20.1517 25.8607L21.6546 24.3579C21.6198 24.3252 21.581 24.2965 21.5442 24.2638L20.1517 25.6563H20.1578ZM33.3547 24.818V24.6134C33.3547 24.7219 33.3117 24.8259 33.235 24.9026C33.1583 24.9793 33.0542 25.0224 32.9458 25.0224H25.1756V25.2269H32.9458C33.0542 25.2269 33.1582 25.1838 33.2349 25.1071C33.3116 25.0304 33.3547 24.9264 33.3547 24.818V24.818ZM32.9458 32.7925H25.1756V32.997H32.9458C33.0542 32.997 33.1583 32.9539 33.235 32.8772C33.3117 32.8005 33.3547 32.6965 33.3547 32.588V32.3836C33.3547 32.492 33.3116 32.596 33.2349 32.6727C33.1582 32.7494 33.0542 32.7925 32.9458 32.7925V32.7925ZM34.1726 28.9075H25.1757V29.1119H34.1727C34.2811 29.1119 34.3852 29.0688 34.4619 28.9921C34.5386 28.9154 34.5816 28.8114 34.5816 28.703V28.4985C34.5816 28.607 34.5386 28.711 34.4619 28.7877C34.3852 28.8644 34.2811 28.9075 34.1727 28.9075H34.1726Z" opacity="0.2"/><path id="Vector_16" fill="url(#paint0_radial_94_18061)" d="M41.38 17.0131L34.6323 15.2076V10.1898C34.629 9.68503 34.2189 9.2777 33.7142 9.2777H14.2891C13.7828 9.2755 13.3702 9.68347 13.3668 10.1898V15.1789L6.54957 17.6613C6.09795 17.8488 5.88242 18.3658 6.06703 18.8186L10.0952 29.8889V37.8021C10.0963 38.3098 10.5076 38.7212 11.0153 38.7223H36.9838C37.4915 38.7212 37.9029 38.3098 37.904 37.8021V33.2587L41.9587 18.1275C42.1058 17.66 41.847 17.1617 41.3801 17.0131H41.38Z"/></g></g><defs><radialGradient id="paint0_radial_94_18061" cx="0" cy="0" r="1" gradientTransform="matrix(28.6261 0 0 28.626 12.606 11.664)" gradientUnits="userSpaceOnUse"><stop stop-color="white" stop-opacity="0.1"/><stop offset="1" stop-color="white" stop-opacity="0"/></radialGradient></defs></svg>

<svg xmlns="http://www.w3.org/2000/svg" fill="none" aria-hidden="true" viewBox="0 0 48 48"><path fill="#0C9D58" d="M34.632 29.251a.918.918 0 0 1-.918.912H14.29a.918.918 0 0 1-.922-.912V10.19a.918.918 0 0 1 .918-.912H33.71a.918.918 0 0 1 .922.912v19.06Z"/><path fill="#004D40" d="m34.632 14.177-7.281-.936 7.281 1.954v-1.018Zm-10.28-3.905-11.028 4.923 12.187-4.435v-.012a.89.89 0 0 0-1.16-.476Z" opacity=".2"/><path fill="#fff" d="M33.714 9.278H14.29a.918.918 0 0 0-.922.912v.204a.918.918 0 0 1 .918-.912H33.71a.918.918 0 0 1 .922.912v-.204a.918.918 0 0 0-.918-.912Z" opacity=".2"/><path fill="#EA4335" d="M18.082 28.666a.89.89 0 0 0 .583 1.11l17.994 4.84a.89.89 0 0 0 1.059-.67l4.239-15.823a.89.89 0 0 0-.577-1.11l-17.994-4.84a.89.89 0 0 0-1.059.67l-4.245 15.823Z"/><path fill="#3E2723" d="m37.904 23.771.947 5.75-.947 3.533v-9.283Zm-10.47-10.295.85.229.527 3.547-1.376-3.776Z" opacity=".2"/><path fill="#fff" d="m41.38 17.013-17.994-4.84a.89.89 0 0 0-1.059.67l-4.245 15.823c0 .027 0 .053-.014.08l4.208-15.704a.89.89 0 0 1 1.06-.67l17.993 4.84a.881.881 0 0 1 .595 1.022l.033-.12a.89.89 0 0 0-.577-1.1Z" opacity=".2"/><path fill="#FFC107" d="M32.254 26.718a.89.89 0 0 1-.482 1.157l-18.99 6.911a.89.89 0 0 1-1.114-.574L6.065 18.817a.89.89 0 0 1 .485-1.156l18.99-6.91a.89.89 0 0 1 1.118.572l5.596 15.395Z"/><path fill="#fff" d="M6.137 19.01a.89.89 0 0 1 .482-1.155l18.99-6.91a.887.887 0 0 1 1.106.56l-.057-.183a.89.89 0 0 0-1.115-.574L6.55 17.66a.89.89 0 0 0-.483 1.158l5.603 15.393v.014L6.137 19.01Z" opacity=".2"/><path fill="#4285F4" d="M36.984 17.252H11.015a.92.92 0 0 0-.92.92v19.63c0 .508.412.92.92.92h25.969a.92.92 0 0 0 .92-.92v-19.63a.92.92 0 0 0-.92-.92Z"/><path fill="#fff" d="M25.175 22.978h7.77a.409.409 0 0 1 .41.409v1.226a.409.409 0 0 1-.41.41h-7.77v-2.045Zm0 7.77h7.77a.409.409 0 0 1 .41.409v1.227a.409.409 0 0 1-.41.408h-7.77v-2.044Zm0-3.885h8.997a.409.409 0 0 1 .41.409v1.227a.409.409 0 0 1-.41.409h-8.997v-2.045Z"/><path fill="#1A237E" d="M36.984 38.518H11.015a.922.922 0 0 1-.92-.92v.204a.922.922 0 0 0 .92.92h25.969a.922.922 0 0 0 .92-.92v-.204a.922.922 0 0 1-.92.92Z" opacity=".2"/><path fill="#fff" d="M11.015 17.457h25.969a.922.922 0 0 1 .92.92v-.204a.922.922 0 0 0-.92-.92H11.015a.922.922 0 0 0-.92.92v.204a.922.922 0 0 1 .92-.92Z" opacity=".2"/><path fill="#fff" d="M18.223 27.067v1.84h2.646c-.219 1.125-1.206 1.939-2.646 1.939a2.965 2.965 0 1 1 0-5.93 2.658 2.658 0 0 1 1.892.74l1.4-1.4a4.703 4.703 0 0 0-3.292-1.278 4.905 4.905 0 0 0-4.926 4.907 4.907 4.907 0 0 0 4.926 4.907c2.834 0 4.703-1.991 4.703-4.794a5.847 5.847 0 0 0-.077-.93h-4.626Z"/><path fill="#1A237E" d="M18.274 28.907v.205h2.597c.02-.067.036-.135.05-.204h-2.647Z" opacity=".2"/><path fill="#1A237E" d="M18.274 32.792a4.908 4.908 0 0 1-4.907-4.805v.103a4.907 4.907 0 0 0 4.907 4.907c2.834 0 4.703-1.992 4.703-4.795v-.065c-.067 2.73-1.916 4.655-4.703 4.655Zm1.884-7.136a2.658 2.658 0 0 0-1.884-.736 2.957 2.957 0 0 0-2.91 2.965v.102a2.953 2.953 0 0 1 2.904-2.862c.7-.013 1.377.252 1.883.736l1.503-1.503c-.035-.033-.073-.061-.11-.094l-1.393 1.392h.007Zm13.197-.838v-.205a.409.409 0 0 1-.41.41h-7.77v.204h7.77a.409.409 0 0 0 .41-.409Zm-.41 7.974h-7.77v.205h7.77a.409.409 0 0 0 .41-.409v-.204a.409.409 0 0 1-.41.408Zm1.227-3.885h-8.996v.205h8.996a.409.409 0 0 0 .41-.409v-.204a.409.409 0 0 1-.41.409Z" opacity=".2"/><path fill="url(#a)" d="m41.38 17.013-6.748-1.805V10.19a.918.918 0 0 0-.918-.912H14.29a.918.918 0 0 0-.922.912v4.989L6.55 17.661a.89.89 0 0 0-.483 1.158l4.028 11.07v7.913a.922.922 0 0 0 .92.92h25.969a.922.922 0 0 0 .92-.92V33.26l4.055-15.131a.89.89 0 0 0-.579-1.115Z"/><defs><radialGradient id="a" cx="0" cy="0" r="1" gradientTransform="matrix(28.6261 0 0 28.626 12.606 11.664)" gradientUnits="userSpaceOnUse"><stop stop-color="#fff" stop-opacity=".1"/><stop offset="1" stop-color="#fff" stop-opacity="0"/></radialGradient></defs></svg>
